X:3349
T:Korol'
O:england
S:A. Humenyuk
Q:72
M:4/4
L:1/8
K:DDor
[E2c2][GB][FA] [E4G4] | \
[Ec] [Ec] [E2c2] [F2d2] [F2G2] | \
[E2c2][GB][FA] [E4G4] | [E2c2][Fd][Ec] [D4G2]AF | \
[CE] [DF] [E2G2] [E3c2]G [^FA] | \
M:2/4
L:1/8
G2 G z ||
(e3d/2c/2) d2 (ed) | A2 (ce) d4 | \
[c3e3][B/2d/2][A/2c/2] [B2d2] [ce][Bd] | \
A2 (ce) d4 :|\
|: e3d/2c/2 d2 (ed) | A2 (ce) d4 | \
Q:144
d d ^c A | e e e ^c | d d ^c A | \
e e e ^c | d d (^c>A) | A ^c d2 |]


